vsi/primitive-square_light.svg

<svg viewBox="0 0 16 16" fill="none" xmlns="http://www.w3.org/2000/svg" height="1em" width="1em">
  <path fill-rule="evenodd" clip-rule="evenodd" d="M3.50024 4L4.00024 3.5H12.0002L12.5002 4V12L12.0002 12.5H4.00024L3.50024 12V4ZM4.50024 4.5V11.5H11.5002V4.5H4.50024Z" fill="#424242"/>
</svg>

<svg viewBox="0 0 16 16" fill="none" xmlns="http://www.w3.org/2000/svg" height="1em" width="1em">
  <path fill-rule="evenodd" clip-rule="evenodd" d="m3.5 4 .5-.5h8l.5.5v8l-.5.5H4l-.5-.5V4Zm1 .5v7h7v-7h-7Z" fill="#424242"/>
</svg>
